src/status/22/indicator-notification-unread-dnd.svg

<svg width="22" height="22" viewBox="0 0 22 22" xmlns="http://www.w3.org/2000/svg">
 <path d="m11 0c-3.332031-0.0117188-5.902344 2.035156-7.082031 4.625-0.792969 1.808594-1.171875 2.40625-1.167969 5.929688v3.195312l-2.75 4.125h22l-2.75-4.125v-3.195312c0-3.523438-0.585938-4.628907-1.167969-5.8125-1.34375-2.644532-3.8125-4.7539068-7.082031-4.742188zm-0.003906 3.257812c1.46875 0 2.644531 1.207032 2.644531 2.683594v1.28125c0.734375 0 1.324219 0.59375 1.324219 1.324219v3.964844c0 0.730469-0.59375 1.320312-1.324219 1.320312h-5.285156c-0.730469 0-1.320313-0.589843-1.320313-1.320312v-3.964844c0-0.734375 0.59375-1.324219 1.320313-1.324219v-1.28125c0-1.476562 1.179687-2.683594 2.640625-2.683594zm0 1.328126c-0.730469 0-1.320313 0.582031-1.320313 1.320312v1.316406h2.644531v-1.316406c0-0.738281-0.585937-1.320312-1.324218-1.320312z" fill="rgb(53.333336%, 75.294119%, 81.568629%)"/>
 <path d="m7.113281 19.25c0.582031 1.648438 2.140625 2.75 3.886719 2.75 1.746094-0.003906 3.300781-1.105469 3.882812-2.75z" fill="rgb(53.333336%, 75.294119%, 81.568629%)"/>
</svg>

<svg xmlns="http://www.w3.org/2000/svg" xmlns:xlink="http://www.w3.org/1999/xlink" width="22" height="22" viewBox="0 0 22 22">
<path fill-rule="nonzero" fill="rgb(53.333336%, 75.294119%, 81.568629%)" fill-opacity="1" d="M 11 0 C 7.667969 -0.0117188 5.097656 2.035156 3.917969 4.625 C 3.125 6.433594 2.746094 7.03125 2.75 10.554688 L 2.75 13.75 L 0 17.875 L 22 17.875 L 19.25 13.75 L 19.25 10.554688 C 19.25 7.03125 18.664062 5.925781 18.082031 4.742188 C 16.738281 2.097656 14.269531 -0.0117188 11 0 Z M 10.996094 3.257812 C 12.464844 3.257812 13.640625 4.464844 13.640625 5.941406 L 13.640625 7.222656 C 14.375 7.222656 14.964844 7.816406 14.964844 8.546875 L 14.964844 12.511719 C 14.964844 13.242188 14.371094 13.832031 13.640625 13.832031 L 8.355469 13.832031 C 7.625 13.832031 7.035156 13.242188 7.035156 12.511719 L 7.035156 8.546875 C 7.035156 7.8125 7.628906 7.222656 8.355469 7.222656 L 8.355469 5.941406 C 8.355469 4.464844 9.535156 3.257812 10.996094 3.257812 Z M 10.996094 4.585938 C 10.265625 4.585938 9.675781 5.167969 9.675781 5.90625 L 9.675781 7.222656 L 12.320312 7.222656 L 12.320312 5.90625 C 12.320312 5.167969 11.734375 4.585938 10.996094 4.585938 Z M 10.996094 4.585938 "/>
<path fill-rule="nonzero" fill="rgb(53.333336%, 75.294119%, 81.568629%)" fill-opacity="1" d="M 7.113281 19.25 C 7.695312 20.898438 9.253906 22 11 22 C 12.746094 21.996094 14.300781 20.894531 14.882812 19.25 Z M 7.113281 19.25 "/>
</svg>
